weblate_web/static/img/icon-bitcoin.svg

<svg width="16" height="20" version="1.1" viewBox="0 0 16 20" xmlns="http://www.w3.org/2000/svg"><g fill="none" fill-rule="evenodd"><g transform="translate(-347 -2527)" fill="#2ECCAA" fill-rule="nonzero"><g transform="translate(347 2527)"><path d="m0.5 3h3.5v-3h2v3h1.5v-3h2v3c5.5 0 5.5 6 2.5 6.25 4-0.25 5 7.75-2.5 7.75v3h-2v-3h-1.5v3h-2v-3h-3.5l0.5-2h1c0.55228 0 1-0.44772 1-1v-8c0-0.55228-0.44772-1-1-1h-1.5v-2zm5.5 2v4s4.5 0.25 4.5-2-4.5-2-4.5-2zm0 5.5v4.5s5.5 0 5.5-2.25-5.5-2.25-5.5-2.25z"/></g></g></g></svg>

<svg xmlns="http://www.w3.org/2000/svg" xmlns:xlink="http://www.w3.org/1999/xlink" width="16" height="20" version="1.1" viewBox="0 0 16 20"><title>06D12D9C-822D-454C-B052-05541135555D</title><desc>Created with sketchtool.</desc><g id="Weblate" fill="none" fill-rule="evenodd" stroke="none" stroke-width="1"><g id="Donate" fill="#2ECCAA" fill-rule="nonzero" transform="translate(-347.000000, -2527.000000)"><g id="bitcoin" transform="translate(347.000000, 2527.000000)"><path id="Shape" d="M0.5,3 L4,3 L4,0 L6,0 L6,3 L7.5,3 L7.5,0 L9.5,0 L9.5,3 C15,3 15,9 12,9.25 C16,9 17,17 9.5,17 L9.5,20 L7.5,20 L7.5,17 L6,17 L6,20 L4,20 L4,17 L0.5,17 L1,15 L2,15 C2.55228475,15 3,14.5522847 3,14 L3,6 C3,5.44771525 2.55228475,5 2,5 L0.5,5 L0.5,3 L0.5,3 Z M6,5 L6,9 C6,9 10.5,9.25 10.5,7 C10.5,4.75 6,5 6,5 L6,5 Z M6,10.5 L6,15 C6,15 11.5,15 11.5,12.75 C11.5,10.5 6,10.5 6,10.5 Z"/></g></g></g></svg>
